Newaita-dark/apps/16/com.github.artemanufrij.showmypictures.svg

<svg height="16" viewBox="0 0 16 16" width="16" xmlns="http://www.w3.org/2000/svg" xmlns:xlink="http://www.w3.org/1999/xlink"><linearGradient id="a" gradientUnits="userSpaceOnUse" x1="7.93826" x2="7.93826" y1="14.0169685" y2="14.67849050002"><stop offset="0" stop-opacity=".27451"/><stop offset="1" stop-opacity="0"/></linearGradient><linearGradient id="b"><stop offset="0" stop-opacity=".313726"/><stop offset=".222222" stop-opacity=".27451"/><stop offset="1" stop-opacity="0"/></linearGradient><radialGradient id="c" cx="450.908936" cy="189.579361" gradientTransform="matrix(.00000009 -.0390662 -.0703192 -.00000005 26.065324 31.797666)" gradientUnits="userSpaceOnUse" r="21.166656" xlink:href="#b"/><radialGradient id="d" cx="450.908936" cy="189.579361" gradientTransform="matrix(-.00000009 .0390662 .0703192 .00000005 -10.188807 -3.763739)" gradientUnits="userSpaceOnUse" r="21.166656" xlink:href="#b"/><radialGradient id="e" cx="450.908936" cy="189.579361" gradientTransform="matrix(-.00000009 -.0390662 .0703192 -.00000005 -10.188807 31.797666)" gradientUnits="userSpaceOnUse" r="21.166656" xlink:href="#b"/><radialGradient id="f" cx="450.908936" cy="189.579361" gradientTransform="matrix(.00000009 .0390662 -.0703192 .00000005 26.065323 -3.76374)" gradientUnits="userSpaceOnUse" r="21.166656" xlink:href="#b"/><linearGradient id="g" gradientUnits="userSpaceOnUse" x1="5.29217449998" x2="5.29217449998" y1="14.0169675" y2="1.44805300003"><stop offset="0" stop-color="#bdbdbd"/><stop offset="1" stop-color="#e0e0e0"/></linearGradient><linearGradient id="h" gradientUnits="userSpaceOnUse" x1="7.93826153121" x2="7.938262" y1="11.04011925" y2="2.1095745"><stop offset="0" stop-color="#e57373"/><stop offset="1" stop-color="#64b5f6"/></linearGradient><linearGradient id="i" gradientUnits="userSpaceOnUse" x1="11.080498025" x2="11.080498025" y1="6.4094634" y2="3.43261484997"><stop offset="0" stop-color="#f44336"/><stop offset="1" stop-color="#ef5350"/></linearGradient><linearGradient id="j" gradientUnits="userSpaceOnUse" x1="7.9382592" x2="7.9382592" y1="10.95354400048" y2="2.3537628201"><stop offset="0" stop-color="#424242"/><stop offset="1" stop-color="#616161"/></linearGradient><linearGradient id="k" gradientUnits="userSpaceOnUse" x1="7.9382592" x2="7.9382592" y1="10.95354400048" y2="2.3537628201"><stop offset="0" stop-color="#f48fb1"/><stop offset="1" stop-color="#fce4ec"/></linearGradient><path d="m2.976562 13.96875h9.921876v.734375h-9.921876zm0 0" fill="url(#a)"/><path d="m12.898438 14.015625h1.324218v-.660156h-1.324218zm0 0" fill="url(#c)"/><path d="m2.976562 14.015625h-1.324218v.664063h1.324218zm0 0" fill="url(#d)"/><path d="m2.976562 14.015625h-1.324218v-.660156h1.324218zm0 0" fill="url(#e)"/><path d="m12.898438 14.015625h1.324218v.664063h-1.324218zm0 0" fill="url(#f)"/><path d="m2.316406 1.449219h11.246094c.363281 0 .660156.296875.660156.660156v11.246094c0 .367187-.296875.660156-.660156.660156h-11.246094c-.367187 0-.664062-.292969-.664062-.660156v-11.246094c0-.363281.296875-.660156.664062-.660156zm0 0" fill="url(#g)"/><path d="m2.316406 1.449219c-.367187 0-.664062.292969-.664062.660156v.082031c0-.367187.296875-.660156.664062-.660156h11.246094c.363281 0 .660156.292969.660156.660156v-.082031c0-.367187-.296875-.660156-.660156-.660156zm0 0" fill="#fff"/><path d="m2.316406 13.960938c-.367187 0-.664062-.296876-.664062-.664063v-.082031c0 .367187.296875.660156.664062.660156h11.246094c.363281 0 .660156-.292969.660156-.660156v.082031c0 .367187-.296875.664063-.660156.664063zm0 0" fill-opacity=".196078"/><path d="m74.117922-168.629428h359.840637c11.62389 0 21.122983 9.499093 21.122983 21.122983v359.840637c0 11.748878-9.499093 21.122982-21.122983 21.122982h-359.840637c-11.748878 0-21.247971-9.374104-21.247971-21.122982v-359.840637c0-11.62389 9.499093-21.122983 21.247971-21.122983zm0 0" fill="none" stroke="#212121" stroke-linecap="round" stroke-width="3" transform="matrix(.031253 0 0 .031253 0 6.719392)"/><path d="m2.644531 2.109375h10.585938c.183593 0 .332031.148437.332031.332031v7.9375c0 .183594-.148438.332032-.332031.332032h-10.585938c-.179687 0-.328125-.148438-.328125-.332032v-7.9375c0-.183594.148438-.332031.328125-.332031zm0 0" fill="url(#h)"/><path d="m10.914062 3.433594h.332032c.730468 0 1.324218.664062 1.324218 1.488281 0 .820313-.59375 1.488281-1.324218 1.488281h-.332032c-.730468 0-1.320312-.667968-1.320312-1.488281 0-.824219.589844-1.488281 1.320312-1.488281zm0 0" fill="url(#i)"/><path d="m5.289062 4.671875c-.085937 0-.167968.035156-.230468.097656l-2.742188 2.742188v2.867187c0 .183594.144532.332032.328125.332032h10.585938c.183593 0 .332031-.148438.332031-.332032v-2.769531l-2.097656-1.863281c-.136719-.121094-.347656-.105469-.464844.03125l-2.085938 2.378906-3.390624-3.386719c-.0625-.0625-.148438-.097656-.234376-.097656zm0 0" fill="url(#j)"/><path d="m5.289062 4.671875c-.085937 0-.167968.035156-.230468.097656l-1.289063 1.289063.363281.429687c.167969.164063.648438.175781 1.160157-.164062.328125-.328125.722656-.296875.992187 0 .382813.355469.734375.328125 1.125.328125l-1.886718-1.882813c-.0625-.0625-.148438-.097656-.234376-.097656zm5.953126.992187c-.089844 0-.179688.039063-.242188.113282l-.769531.875h.023437c.058594.128906.082032.582031.332032.332031.421874-.421875.496093-.246094.660156-.082031.246094.246094.414062.496094.660156.414062.414062-.167968.488281-.574218.304688-.90625l-.746094-.664062c-.066406-.054688-.144532-.082032-.222656-.082032zm0 0" fill="url(#k)"/><g fill="none" stroke-linecap="round" stroke-width="3"><path d="m84.616919-147.506445h338.717655c5.874439 0 10.623985 4.749546 10.623985 10.623985v253.975747c0 5.874439-4.749546 10.623985-10.623985 10.623985h-338.717655c-5.74945 0-10.498997-4.749546-10.498997-10.623985v-253.975747c0-5.874439 4.749547-10.623985 10.498997-10.623985zm0 0" stroke="#212121" transform="matrix(.031253 0 0 .031253 0 6.719392)"/><path d="m221.554093 136.336901c-2.124797-14.248639 15.49852-20.748019 7.374296.749928-6.999332 18.998186-16.498424 19.748115-16.373436 14.87358.749928-6.874343 9.374104-3.374678 15.748496-2.624749 8.499188.999904 16.873388-10.99895 16.373436-19.123174" stroke="#1a237e" stroke-linejoin="round" transform="matrix(.031253 0 0 .031253 2.646086 8.207815)"/><path d="m239.17741 128.337665c4.374583-14.373627 28.622267-20.997995 20.623031.499952-7.12432 18.998186-18.74821 18.74821-19.99809 14.123651-1.249881-4.624558 4.874534-12.87377 4.874534-12.748782" stroke="#1a237e" stroke-linejoin="round" transform="matrix(.031253 0 0 .031253 2.646086 8.207815)"/><path d="m265.299916 121.338333c17.748305-4.749546 15.123556-11.498902 14.498615-13.748687-9.749069 19.123174-10.623985 35.621599-9.874057 30.622076" stroke="#1a237e" stroke-linejoin="round" transform="matrix(.031253 0 0 .031253 2.646086 8.207815)"/><path d="m285.298006 112.714157c.124988-11.62389 19.248162-8.749165 9.124129 1.374869-8.249213 8.249212-19.37315 12.87377-15.123556 19.123173 5.124511 6.874344 18.873198-3.374677 12.123842-9.749069-6.499379-5.749451-7.874248-7.874248-8.499188-10.124033" stroke="#1a237e" stroke-linejoin="round" transform="matrix(.031253 0 0 .031253 2.646086 8.207815)"/><path d="m214.304786 166.08406c52.869951-26.497469 113.739138-26.497469 100.490403-21.247971" stroke="#1a237e" stroke-linejoin="round" transform="matrix(.031253 0 0 .031253 2.646086 8.207815)"/></g></svg>

<?xml version="1.0" encoding="UTF-8"?>
<svg xmlns="http://www.w3.org/2000/svg" xmlns:xlink="http://www.w3.org/1999/xlink" width="16px" height="16px" viewBox="0 0 16 16" version="1.1">
<defs>
<linearGradient id="linear0" gradientUnits="userSpaceOnUse" x1="254" y1="233.5" x2="254" y2="254.666672" gradientTransform="matrix(0.031253,0,0,0.031253,-0.00000190753,6.719393)">
<stop offset="0" style="stop-color:rgb(0%,0%,0%);stop-opacity:0.27451;"/>
<stop offset="1" style="stop-color:rgb(0%,0%,0%);stop-opacity:0;"/>
</linearGradient>
<radialGradient id="radial0" gradientUnits="userSpaceOnUse" cx="450.908936" cy="189.579361" fx="450.908936" fy="189.579361" r="21.166656" gradientTransform="matrix(0.0000000870852,-0.0390662,-0.0703192,-0.0000000507693,26.065324,31.797666)">
<stop offset="0" style="stop-color:rgb(0%,0%,0%);stop-opacity:0.313726;"/>
<stop offset="0.222222" style="stop-color:rgb(0%,0%,0%);stop-opacity:0.27451;"/>
<stop offset="1" style="stop-color:rgb(0%,0%,0%);stop-opacity:0;"/>
</radialGradient>
<radialGradient id="radial1" gradientUnits="userSpaceOnUse" cx="450.908936" cy="189.579361" fx="450.908936" fy="189.579361" r="21.166656" gradientTransform="matrix(-0.0000000870852,0.0390662,0.0703192,0.0000000507693,-10.188807,-3.763739)">
<stop offset="0" style="stop-color:rgb(0%,0%,0%);stop-opacity:0.313726;"/>
<stop offset="0.222222" style="stop-color:rgb(0%,0%,0%);stop-opacity:0.27451;"/>
<stop offset="1" style="stop-color:rgb(0%,0%,0%);stop-opacity:0;"/>
</radialGradient>
<radialGradient id="radial2" gradientUnits="userSpaceOnUse" cx="450.908936" cy="189.579361" fx="450.908936" fy="189.579361" r="21.166656" gradientTransform="matrix(-0.0000000870852,-0.0390662,0.0703192,-0.0000000507693,-10.188807,31.797666)">
<stop offset="0" style="stop-color:rgb(0%,0%,0%);stop-opacity:0.313726;"/>
<stop offset="0.222222" style="stop-color:rgb(0%,0%,0%);stop-opacity:0.27451;"/>
<stop offset="1" style="stop-color:rgb(0%,0%,0%);stop-opacity:0;"/>
</radialGradient>
<radialGradient id="radial3" gradientUnits="userSpaceOnUse" cx="450.908936" cy="189.579361" fx="450.908936" fy="189.579361" r="21.166656" gradientTransform="matrix(0.0000000870852,0.0390662,-0.0703192,0.0000000507693,26.065323,-3.76374)">
<stop offset="0" style="stop-color:rgb(0%,0%,0%);stop-opacity:0.313726;"/>
<stop offset="0.222222" style="stop-color:rgb(0%,0%,0%);stop-opacity:0.27451;"/>
<stop offset="1" style="stop-color:rgb(0%,0%,0%);stop-opacity:0;"/>
</radialGradient>
<linearGradient id="linear1" gradientUnits="userSpaceOnUse" x1="169.333328" y1="233.5" x2="169.333328" y2="-168.666656" gradientTransform="matrix(0.031253,0,0,0.031253,0,6.719392)">
<stop offset="0" style="stop-color:rgb(74.117649%,74.117649%,74.117649%);stop-opacity:1;"/>
<stop offset="1" style="stop-color:rgb(87.843138%,87.843138%,87.843138%);stop-opacity:1;"/>
</linearGradient>
<linearGradient id="linear2" gradientUnits="userSpaceOnUse" x1="253.999985" y1="138.25" x2="254" y2="-147.5" gradientTransform="matrix(0.031253,0,0,0.031253,0,6.719392)">
<stop offset="0" style="stop-color:rgb(89.803922%,45.09804%,45.09804%);stop-opacity:1;"/>
<stop offset="1" style="stop-color:rgb(39.215687%,70.980394%,96.470588%);stop-opacity:1;"/>
</linearGradient>
<linearGradient id="linear3" gradientUnits="userSpaceOnUse" x1="301.625" y1="-84" x2="301.625" y2="-136.916672" gradientTransform="matrix(0.0562554,0,0,0.0562554,-5.887537,11.134917)">
<stop offset="0" style="stop-color:rgb(95.686275%,26.274511%,21.176471%);stop-opacity:1;"/>
<stop offset="1" style="stop-color:rgb(93.725491%,32.549021%,31.37255%);stop-opacity:1;"/>
</linearGradient>
<linearGradient id="linear4" gradientUnits="userSpaceOnUse" x1="960" y1="1295.118164" x2="960" y2="255.118118" gradientTransform="matrix(0.00826902,0,0,0.00826902,0.000000134388,0.244186)">
<stop offset="0" style="stop-color:rgb(25.882354%,25.882354%,25.882354%);stop-opacity:1;"/>
<stop offset="1" style="stop-color:rgb(38.039216%,38.039216%,38.039216%);stop-opacity:1;"/>
</linearGradient>
<linearGradient id="linear5" gradientUnits="userSpaceOnUse" x1="960" y1="1295.118164" x2="960" y2="255.118118" gradientTransform="matrix(0.00826902,0,0,0.00826902,0.000000134388,0.244186)">
<stop offset="0" style="stop-color:rgb(95.686275%,56.078434%,69.411767%);stop-opacity:1;"/>
<stop offset="1" style="stop-color:rgb(98.823529%,89.411765%,92.54902%);stop-opacity:1;"/>
</linearGradient>
</defs>
<g id="surface1">
<path style=" stroke:none;fill-rule:nonzero;fill:url(#linear0);" d="M 2.976562 13.96875 L 12.898438 13.96875 L 12.898438 14.703125 L 2.976562 14.703125 Z M 2.976562 13.96875 "/>
<path style=" stroke:none;fill-rule:nonzero;fill:url(#radial0);" d="M 12.898438 14.015625 L 14.222656 14.015625 L 14.222656 13.355469 L 12.898438 13.355469 Z M 12.898438 14.015625 "/>
<path style=" stroke:none;fill-rule:nonzero;fill:url(#radial1);" d="M 2.976562 14.015625 L 1.652344 14.015625 L 1.652344 14.679688 L 2.976562 14.679688 Z M 2.976562 14.015625 "/>
<path style=" stroke:none;fill-rule:nonzero;fill:url(#radial2);" d="M 2.976562 14.015625 L 1.652344 14.015625 L 1.652344 13.355469 L 2.976562 13.355469 Z M 2.976562 14.015625 "/>
<path style=" stroke:none;fill-rule:nonzero;fill:url(#radial3);" d="M 12.898438 14.015625 L 14.222656 14.015625 L 14.222656 14.679688 L 12.898438 14.679688 Z M 12.898438 14.015625 "/>
<path style=" stroke:none;fill-rule:nonzero;fill:url(#linear1);" d="M 2.316406 1.449219 L 13.5625 1.449219 C 13.925781 1.449219 14.222656 1.746094 14.222656 2.109375 L 14.222656 13.355469 C 14.222656 13.722656 13.925781 14.015625 13.5625 14.015625 L 2.316406 14.015625 C 1.949219 14.015625 1.652344 13.722656 1.652344 13.355469 L 1.652344 2.109375 C 1.652344 1.746094 1.949219 1.449219 2.316406 1.449219 Z M 2.316406 1.449219 "/>
<path style=" stroke:none;fill-rule:nonzero;fill:rgb(100%,100%,100%);fill-opacity:1;" d="M 2.316406 1.449219 C 1.949219 1.449219 1.652344 1.742188 1.652344 2.109375 L 1.652344 2.191406 C 1.652344 1.824219 1.949219 1.53125 2.316406 1.53125 L 13.5625 1.53125 C 13.925781 1.53125 14.222656 1.824219 14.222656 2.191406 L 14.222656 2.109375 C 14.222656 1.742188 13.925781 1.449219 13.5625 1.449219 Z M 2.316406 1.449219 "/>
<path style=" stroke:none;fill-rule:nonzero;fill:rgb(0%,0%,0%);fill-opacity:0.196078;" d="M 2.316406 13.960938 C 1.949219 13.960938 1.652344 13.664062 1.652344 13.296875 L 1.652344 13.214844 C 1.652344 13.582031 1.949219 13.875 2.316406 13.875 L 13.5625 13.875 C 13.925781 13.875 14.222656 13.582031 14.222656 13.214844 L 14.222656 13.296875 C 14.222656 13.664062 13.925781 13.960938 13.5625 13.960938 Z M 2.316406 13.960938 "/>
<path style="fill:none;stroke-width:3;stroke-linecap:round;stroke-linejoin:miter;stroke:rgb(12.941177%,12.941177%,12.941177%);stroke-opacity:1;stroke-miterlimit:4;" d="M 74.117922 -168.629428 L 433.958559 -168.629428 C 445.582449 -168.629428 455.081542 -159.130335 455.081542 -147.506445 L 455.081542 212.334192 C 455.081542 224.08307 445.582449 233.457174 433.958559 233.457174 L 74.117922 233.457174 C 62.369044 233.457174 52.869951 224.08307 52.869951 212.334192 L 52.869951 -147.506445 C 52.869951 -159.130335 62.369044 -168.629428 74.117922 -168.629428 Z M 74.117922 -168.629428 " transform="matrix(0.031253,0,0,0.031253,0,6.719392)"/>
<path style=" stroke:none;fill-rule:nonzero;fill:url(#linear2);" d="M 2.644531 2.109375 L 13.230469 2.109375 C 13.414062 2.109375 13.5625 2.257812 13.5625 2.441406 L 13.5625 10.378906 C 13.5625 10.5625 13.414062 10.710938 13.230469 10.710938 L 2.644531 10.710938 C 2.464844 10.710938 2.316406 10.5625 2.316406 10.378906 L 2.316406 2.441406 C 2.316406 2.257812 2.464844 2.109375 2.644531 2.109375 Z M 2.644531 2.109375 "/>
<path style=" stroke:none;fill-rule:nonzero;fill:url(#linear3);" d="M 10.914062 3.433594 L 11.246094 3.433594 C 11.976562 3.433594 12.570312 4.097656 12.570312 4.921875 C 12.570312 5.742188 11.976562 6.410156 11.246094 6.410156 L 10.914062 6.410156 C 10.183594 6.410156 9.59375 5.742188 9.59375 4.921875 C 9.59375 4.097656 10.183594 3.433594 10.914062 3.433594 Z M 10.914062 3.433594 "/>
<path style=" stroke:none;fill-rule:nonzero;fill:url(#linear4);" d="M 5.289062 4.671875 C 5.203125 4.671875 5.121094 4.707031 5.058594 4.769531 L 2.316406 7.511719 L 2.316406 10.378906 C 2.316406 10.5625 2.460938 10.710938 2.644531 10.710938 L 13.230469 10.710938 C 13.414062 10.710938 13.5625 10.5625 13.5625 10.378906 L 13.5625 7.609375 L 11.464844 5.746094 C 11.328125 5.625 11.117188 5.640625 11 5.777344 L 8.914062 8.15625 L 5.523438 4.769531 C 5.460938 4.707031 5.375 4.671875 5.289062 4.671875 Z M 5.289062 4.671875 "/>
<path style=" stroke:none;fill-rule:nonzero;fill:url(#linear5);" d="M 5.289062 4.671875 C 5.203125 4.671875 5.121094 4.707031 5.058594 4.769531 L 3.769531 6.058594 L 4.132812 6.488281 C 4.300781 6.652344 4.78125 6.664062 5.292969 6.324219 C 5.621094 5.996094 6.015625 6.027344 6.285156 6.324219 C 6.667969 6.679688 7.019531 6.652344 7.410156 6.652344 L 5.523438 4.769531 C 5.460938 4.707031 5.375 4.671875 5.289062 4.671875 Z M 11.242188 5.664062 C 11.152344 5.664062 11.0625 5.703125 11 5.777344 L 10.230469 6.652344 L 10.253906 6.652344 C 10.3125 6.78125 10.335938 7.234375 10.585938 6.984375 C 11.007812 6.5625 11.082031 6.738281 11.246094 6.902344 C 11.492188 7.148438 11.660156 7.398438 11.90625 7.316406 C 12.320312 7.148438 12.394531 6.742188 12.210938 6.410156 L 11.464844 5.746094 C 11.398438 5.691406 11.320312 5.664062 11.242188 5.664062 Z M 11.242188 5.664062 "/>
<path style="fill:none;stroke-width:3;stroke-linecap:round;stroke-linejoin:miter;stroke:rgb(12.941177%,12.941177%,12.941177%);stroke-opacity:1;stroke-miterlimit:4;" d="M 84.616919 -147.506445 L 423.334574 -147.506445 C 429.209013 -147.506445 433.958559 -142.756899 433.958559 -136.88246 L 433.958559 117.093287 C 433.958559 122.967726 429.209013 127.717272 423.334574 127.717272 L 84.616919 127.717272 C 78.867469 127.717272 74.117922 122.967726 74.117922 117.093287 L 74.117922 -136.88246 C 74.117922 -142.756899 78.867469 -147.506445 84.616919 -147.506445 Z M 84.616919 -147.506445 " transform="matrix(0.031253,0,0,0.031253,0,6.719392)"/>
<path style="fill:none;stroke-width:3;stroke-linecap:round;stroke-linejoin:round;stroke:rgb(10.196079%,13.725491%,49.411765%);stroke-opacity:1;stroke-miterlimit:4;" d="M 221.554093 136.336901 C 219.429296 122.088262 237.052613 115.588882 228.928389 137.086829 C 221.929057 156.085015 212.429965 156.834944 212.554953 151.960409 C 213.304881 145.086066 221.929057 148.585731 228.303449 149.33566 C 236.802637 150.335564 245.176837 138.33671 244.676885 130.212486 " transform="matrix(0.031253,0,0,0.031253,2.646086,8.207815)"/>
<path style="fill:none;stroke-width:3;stroke-linecap:round;stroke-linejoin:round;stroke:rgb(10.196079%,13.725491%,49.411765%);stroke-opacity:1;stroke-miterlimit:4;" d="M 239.17741 128.337665 C 243.551993 113.964038 267.799677 107.33967 259.800441 128.837617 C 252.676121 147.835803 241.052231 147.585827 239.802351 142.961268 C 238.55247 138.33671 244.676885 130.087498 244.676885 130.212486 " transform="matrix(0.031253,0,0,0.031253,2.646086,8.207815)"/>
<path style="fill:none;stroke-width:3;stroke-linecap:round;stroke-linejoin:round;stroke:rgb(10.196079%,13.725491%,49.411765%);stroke-opacity:1;stroke-miterlimit:4;" d="M 265.299916 121.338333 C 283.048221 116.588787 280.423472 109.839431 279.798531 107.589646 C 270.049462 126.71282 269.174546 143.211245 269.924474 138.211722 " transform="matrix(0.031253,0,0,0.031253,2.646086,8.207815)"/>
<path style="fill:none;stroke-width:3;stroke-linecap:round;stroke-linejoin:round;stroke:rgb(10.196079%,13.725491%,49.411765%);stroke-opacity:1;stroke-miterlimit:4;" d="M 285.298006 112.714157 C 285.422994 101.090267 304.546168 103.964992 294.422135 114.089026 C 286.172922 122.338238 275.048985 126.962796 279.298579 133.212199 C 284.42309 140.086543 298.171777 129.837522 291.422421 123.46313 C 284.923042 117.713679 283.548173 115.588882 282.923233 113.339097 " transform="matrix(0.031253,0,0,0.031253,2.646086,8.207815)"/>
<path style="fill:none;stroke-width:3;stroke-linecap:round;stroke-linejoin:round;stroke:rgb(10.196079%,13.725491%,49.411765%);stroke-opacity:1;stroke-miterlimit:4;" d="M 214.304786 166.08406 C 267.174737 139.586591 328.043924 139.586591 314.795189 144.836089 " transform="matrix(0.031253,0,0,0.031253,2.646086,8.207815)"/>
</g>
</svg>
